Papirus/64x64/apps/kmplayer.svg

<?xml version="1.0" encoding="UTF-8" standalone="no"?>
<svg
   id="_图层_1"
   version="1.1"
   viewBox="0 0 64 64" width="64" height="64"
   sodipodi:docname="kmplayer.svg"
   xml:space="preserve"
   inkscape:version="1.4 (e7c3feb100, 2024-10-09)"
   xmlns:inkscape="http://www.inkscape.org/namespaces/inkscape"
   xmlns:sodipodi="http://sodipodi.sourceforge.net/DTD/sodipodi-0.dtd"
   xmlns="http://www.w3.org/2000/svg"
   xmlns:svg="http://www.w3.org/2000/svg"><sodipodi:namedview
     id="namedview26"
     pagecolor="#505050"
     bordercolor="#eeeeee"
     borderopacity="1"
     inkscape:showpageshadow="0"
     inkscape:pageopacity="0"
     inkscape:pagecheckerboard="0"
     inkscape:deskcolor="#505050"
     inkscape:zoom="10.6875"
     inkscape:cx="32"
     inkscape:cy="32"
     inkscape:window-width="1920"
     inkscape:window-height="939"
     inkscape:window-x="0"
     inkscape:window-y="34"
     inkscape:window-maximized="1"
     inkscape:current-layer="_图层_1" /><!-- Generator: Adobe Illustrator 29.0.1, SVG Export Plug-In . SVG Version: 2.1.0 Build 192)  --><defs
     id="defs6"><style
       id="style1">
      .st0 {
        fill-opacity: .5;
      }

      .st0, .st1, .st2, .st3, .st4, .st5, .st6, .st7 {
        fill: #fff;
      }

      .st8 {
        fill: #133c9a;
      }

      .st2, .st9 {
        display: none;
      }

      .st3 {
        fill-opacity: .2;
      }

      .st4 {
        fill-opacity: .9;
      }

      .st10 {
        fill: #3370ff;
      }

      .st11 {
        fill: url(#_未命名的渐变_3);
      }

      .st12 {
        fill: url(#_未命名的渐变);
      }

      .st5 {
        fill-opacity: .3;
      }

      .st6 {
        fill-opacity: 0;
      }

      .st7 {
        fill-opacity: .7;
      }

      .st13 {
        fill: #00d6b9;
      }

      .st14 {
        fill: url(#_未命名的渐变_2);
      }
    </style><radialGradient
       id="_未命名的渐变"
       data-name="未命名的渐变"
       cx="123.9"
       cy="-40.2"
       fx="123.9"
       fy="-40.2"
       r="59.4"
       gradientTransform="translate(-26.8 25.5) scale(.6 -.7)"
       gradientUnits="userSpaceOnUse"><stop
         offset="0"
         stop-color="#db202e"
         id="stop1" /><stop
         offset="1"
         stop-color="#e01b24"
         id="stop2" /></radialGradient><radialGradient
       id="_未命名的渐变_2"
       data-name="未命名的渐变 2"
       cx="67.6"
       cy="26.8"
       fx="67.6"
       fy="26.8"
       r="105.2"
       gradientTransform="translate(-26.6 25.3) scale(.6 -.7)"
       gradientUnits="userSpaceOnUse"><stop
         offset="0"
         stop-color="#ffb648"
         id="stop3" /><stop
         offset="1"
         stop-color="#ff7800"
         stop-opacity="0"
         id="stop4" /></radialGradient><radialGradient
       id="_未命名的渐变_3"
       data-name="未命名的渐变 3"
       cx="61.7"
       cy="18.6"
       fx="61.7"
       fy="18.6"
       r="68"
       gradientTransform="translate(-26.8 25.8) scale(.6 -.7)"
       gradientUnits="userSpaceOnUse"><stop
         offset="0"
         stop-color="#c64600"
         id="stop5" /><stop
         offset="1"
         stop-color="#a51d2d"
         id="stop6" /></radialGradient></defs><path
     class="st1"
     d="M47.5,64.1H13.8c-7.6,0-13.8-6.3-13.8-13.8V13.7C0,6.2,6.2,0,13.7,0h36.6c7.5,0,13.7,6.2,13.7,13.7v36.6c0,7.5-6.2,13.7-13.7,13.7h-2.9.1Z"
     id="path6"
     style="fill:#335065;fill-opacity:1" /><g
     id="g27"
     transform="matrix(1.3310841,0,0,1.1428131,-12.476608,-4.533241)"><rect
       style="fill:#ffffff"
       width="5"
       height="5"
       x="16"
       y="7"
       id="rect3" /><rect
       style="fill:#ffffff"
       width="5"
       height="5"
       x="16"
       y="18"
       id="rect4" /><rect
       style="fill:#ffffff"
       width="5"
       height="5"
       x="16"
       y="29"
       id="rect5" /><rect
       style="fill:#ffffff"
       width="5"
       height="5"
       x="16"
       y="40"
       id="rect6" /><rect
       style="fill:#ffffff"
       width="5"
       height="5"
       x="16"
       y="51"
       id="rect7" /><path
       style="opacity:0.2"
       d="m 32.500075,24.000032 c -0.766299,0.01133 -1.312797,0.489423 -1.569269,1.280827 l 0.0095,-0.03569 -1.204001,4.754832 h -4.060338 c -0.0089,-1.47e-4 -0.01722,-1.47e-4 -0.02608,0 -0.484877,0.01626 -0.922085,0.217532 -1.230119,0.605947 -0.666188,0.792019 -0.524992,2.038209 0.32097,2.62889 l 3.192298,2.416388 -1.238815,3.119406 c -0.0014,0.0046 -0.0027,0.0089 -0.0039,0.01318 -0.189292,0.644038 -0.01119,1.307554 0.464852,1.761449 0.0035,0.0034 0.0075,0.0067 0.01091,0.0099 0.572172,0.526814 1.376106,0.593769 2.022264,0.157716 0.01233,-0.0084 0.02452,-0.01683 0.03637,-0.02572 l 3.275312,-2.449592 3.275308,2.449592 c 0.01176,0.0089 0.02407,0.01751 0.03637,0.02572 0.646158,0.436053 1.450091,0.369098 2.022262,-0.157716 0.0036,-0.0032 0.0077,-0.0067 0.01091,-0.0099 0.47614,-0.453895 0.654145,-1.117411 0.464852,-1.761449 -0.0013,-0.0046 -0.0027,-0.0089 -0.0039,-0.01318 l -1.238767,-3.119407 3.192299,-2.41639 c 0.845959,-0.590679 0.987159,-1.836871 0.320969,-2.62889 -0.308035,-0.388415 -0.745243,-0.589669 -1.230117,-0.605947 -0.0089,-1.45e-4 -0.01724,-1.45e-4 -0.0261,0 h -4.06034 l -1.204081,-4.754837 0.0095,0.03569 c -0.256399,-0.7914 -0.802897,-1.269478 -1.569196,-1.280823 z"
       id="path7" /><path
       style="fill:#ff3b64"
       d="m 32.500075,23.000032 c -0.766299,0.01133 -1.312797,0.489423 -1.569269,1.280827 l 0.0095,-0.03569 -1.204001,4.754832 h -4.060338 c -0.0089,-1.47e-4 -0.01722,-1.47e-4 -0.02608,0 -0.484877,0.01626 -0.922085,0.217532 -1.230119,0.605947 -0.666188,0.792019 -0.524992,2.038209 0.32097,2.62889 l 3.192298,2.416388 -1.238815,3.119406 c -0.0014,0.0046 -0.0027,0.0089 -0.0039,0.01318 -0.189292,0.644038 -0.01119,1.307554 0.464852,1.761449 0.0035,0.0034 0.0075,0.0067 0.01091,0.0099 0.572172,0.526814 1.376106,0.593769 2.022264,0.157716 0.01233,-0.0084 0.02452,-0.01683 0.03637,-0.02572 l 3.275312,-2.449592 3.275308,2.449592 c 0.01176,0.0089 0.02407,0.01751 0.03637,0.02572 0.646158,0.436053 1.450091,0.369098 2.022262,-0.157716 0.0036,-0.0032 0.0077,-0.0067 0.01091,-0.0099 0.47614,-0.453895 0.654145,-1.117411 0.464852,-1.761449 -0.0013,-0.0046 -0.0027,-0.0089 -0.0039,-0.01318 l -1.238767,-3.119407 3.192299,-2.41639 c 0.845959,-0.590679 0.987159,-1.836871 0.320969,-2.62889 -0.308035,-0.388415 -0.745243,-0.589669 -1.230117,-0.605947 -0.0089,-1.45e-4 -0.01724,-1.45e-4 -0.0261,0 h -4.06034 l -1.204081,-4.754837 0.0095,0.03569 c -0.256399,-0.7914 -0.802897,-1.269478 -1.569196,-1.280823 z"
       id="path8" /><rect
       style="fill:#ffffff"
       width="5"
       height="5"
       x="44"
       y="7"
       id="rect8" /><rect
       style="fill:#ffffff"
       width="5"
       height="5"
       x="44"
       y="18"
       id="rect9" /><rect
       style="fill:#ffffff"
       width="5"
       height="5"
       x="44"
       y="29"
       id="rect10" /><rect
       style="fill:#ffffff"
       width="5"
       height="5"
       x="44"
       y="40"
       id="rect11" /><rect
       style="fill:#ffffff"
       width="5"
       height="5"
       x="44"
       y="51"
       id="rect12" /><path
       style="opacity:0.2;fill:#ffffff"
       d="m 32.5,23 c -0.766299,0.01133 -1.311887,0.489846 -1.568359,1.28125 L 29.736328,29 h -4.060547 c -0.0089,-1.47e-4 -0.01653,-1.47e-4 -0.02539,0 -0.484877,0.01626 -0.922435,0.217054 -1.230469,0.605469 -0.395331,0.470002 -0.499522,1.098269 -0.347656,1.65625 0.06747,-0.235285 0.18249,-0.459888 0.347656,-0.65625 C 24.727956,30.217054 25.165514,30.01626 25.650391,30 c 0.0089,-1.47e-4 0.01649,-1.47e-4 0.02539,0 h 4.060547 l 1.195313,-4.71875 C 31.188113,24.489846 31.733701,24.01133 32.5,24 c 0.766299,0.01134 1.31196,0.48985 1.568359,1.28125 L 35.263672,30 h 4.060547 c 0.0089,-1.45e-4 0.01649,-1.45e-4 0.02539,0 0.484874,0.01628 0.922434,0.217054 1.230469,0.605469 0.165166,0.196362 0.280183,0.420965 0.347656,0.65625 0.151866,-0.557981 0.04768,-1.186248 -0.347656,-1.65625 C 40.272043,29.217054 39.834483,29.016278 39.349609,29 c -0.0089,-1.45e-4 -0.01653,-1.45e-4 -0.02539,0 H 35.263672 L 34.068359,24.28125 C 33.81196,23.48985 33.266299,23.011345 32.5,23 Z m -4.871094,12.419922 -0.935547,2.351562 c -0.0014,0.0046 -0.0027,0.0074 -0.0039,0.01172 -0.09914,0.337302 -0.09048,0.679065 0.002,0.994141 6.5e-4,-0.0022 0.0013,-0.0036 0.002,-0.0059 l 1.240235,-3.121093 z m 9.742188,0 -0.304688,0.230469 1.240235,3.121093 c 6e-4,0.0021 0.0013,0.0037 0.002,0.0059 0.09242,-0.315076 0.101091,-0.656839 0.002,-0.994141 -0.0013,-0.0046 -0.0027,-0.0074 -0.0039,-0.01172 z"
       id="path13" /><path
       style="opacity:0.2"
       d="m 16,12 v 1 h 5 v -1 z m 28,0 v 1 h 5 V 12 Z M 16,23 v 1 h 5 v -1 z m 28,0 v 1 h 5 V 23 Z M 16,34 v 1 h 5 v -1 z m 28,0 v 1 h 5 V 34 Z M 16,45 v 1 h 5 v -1 z m 28,0 v 1 h 5 V 45 Z M 16,56 v 1 h 5 v -1 z m 28,0 v 1 h 5 v -1 z"
       id="path14" /></g></svg>

<svg xmlns="http://www.w3.org/2000/svg" width="64" height="64" version="1.1">
 <rect style="opacity:0.2" width="39" height="56" x="13" y="5" rx="4.179" ry="4.2"/>
 <rect style="fill:#335065" width="39" height="56" x="13" y="4" rx="4.179" ry="4.2"/>
 <rect style="fill:#ffffff" width="5" height="5" x="16" y="7"/>
 <rect style="fill:#ffffff" width="5" height="5" x="16" y="18"/>
 <rect style="fill:#ffffff" width="5" height="5" x="16" y="29"/>
 <rect style="fill:#ffffff" width="5" height="5" x="16" y="40"/>
 <rect style="fill:#ffffff" width="5" height="5" x="16" y="51"/>
 <path style="opacity:0.2" d="m 32.500075,24.000032 c -0.766299,0.01133 -1.312797,0.489423 -1.569269,1.280827 l 0.0095,-0.03569 -1.204001,4.754832 h -4.060338 c -0.0089,-1.47e-4 -0.01722,-1.47e-4 -0.02608,0 -0.484877,0.01626 -0.922085,0.217532 -1.230119,0.605947 -0.666188,0.792019 -0.524992,2.038209 0.32097,2.62889 l 3.192298,2.416388 -1.238815,3.119406 c -0.0014,0.0046 -0.0027,0.0089 -0.0039,0.01318 -0.189292,0.644038 -0.01119,1.307554 0.464852,1.761449 0.0035,0.0034 0.0075,0.0067 0.01091,0.0099 0.572172,0.526814 1.376106,0.593769 2.022264,0.157716 0.01233,-0.0084 0.02452,-0.01683 0.03637,-0.02572 l 3.275312,-2.449592 3.275308,2.449592 c 0.01176,0.0089 0.02407,0.01751 0.03637,0.02572 0.646158,0.436053 1.450091,0.369098 2.022262,-0.157716 0.0036,-0.0032 0.0077,-0.0067 0.01091,-0.0099 0.47614,-0.453895 0.654145,-1.117411 0.464852,-1.761449 -0.0013,-0.0046 -0.0027,-0.0089 -0.0039,-0.01318 l -1.238767,-3.119407 3.192299,-2.41639 c 0.845959,-0.590679 0.987159,-1.836871 0.320969,-2.62889 -0.308035,-0.388415 -0.745243,-0.589669 -1.230117,-0.605947 -0.0089,-1.45e-4 -0.01724,-1.45e-4 -0.0261,0 h -4.06034 l -1.204081,-4.754837 0.0095,0.03569 c -0.256399,-0.7914 -0.802897,-1.269478 -1.569196,-1.280823 z"/>
 <path style="fill:#ff3b64" d="m 32.500075,23.000032 c -0.766299,0.01133 -1.312797,0.489423 -1.569269,1.280827 l 0.0095,-0.03569 -1.204001,4.754832 h -4.060338 c -0.0089,-1.47e-4 -0.01722,-1.47e-4 -0.02608,0 -0.484877,0.01626 -0.922085,0.217532 -1.230119,0.605947 -0.666188,0.792019 -0.524992,2.038209 0.32097,2.62889 l 3.192298,2.416388 -1.238815,3.119406 c -0.0014,0.0046 -0.0027,0.0089 -0.0039,0.01318 -0.189292,0.644038 -0.01119,1.307554 0.464852,1.761449 0.0035,0.0034 0.0075,0.0067 0.01091,0.0099 0.572172,0.526814 1.376106,0.593769 2.022264,0.157716 0.01233,-0.0084 0.02452,-0.01683 0.03637,-0.02572 l 3.275312,-2.449592 3.275308,2.449592 c 0.01176,0.0089 0.02407,0.01751 0.03637,0.02572 0.646158,0.436053 1.450091,0.369098 2.022262,-0.157716 0.0036,-0.0032 0.0077,-0.0067 0.01091,-0.0099 0.47614,-0.453895 0.654145,-1.117411 0.464852,-1.761449 -0.0013,-0.0046 -0.0027,-0.0089 -0.0039,-0.01318 l -1.238767,-3.119407 3.192299,-2.41639 c 0.845959,-0.590679 0.987159,-1.836871 0.320969,-2.62889 -0.308035,-0.388415 -0.745243,-0.589669 -1.230117,-0.605947 -0.0089,-1.45e-4 -0.01724,-1.45e-4 -0.0261,0 h -4.06034 l -1.204081,-4.754837 0.0095,0.03569 c -0.256399,-0.7914 -0.802897,-1.269478 -1.569196,-1.280823 z"/>
 <rect style="fill:#ffffff" width="5" height="5" x="44" y="7"/>
 <rect style="fill:#ffffff" width="5" height="5" x="44" y="18"/>
 <rect style="fill:#ffffff" width="5" height="5" x="44" y="29"/>
 <rect style="fill:#ffffff" width="5" height="5" x="44" y="40"/>
 <rect style="fill:#ffffff" width="5" height="5" x="44" y="51"/>
 <path style="fill:#ffffff;opacity:0.1" d="M 17.177734 4 C 14.862806 4 13 5.8724186 13 8.1992188 L 13 9.1992188 C 13 6.8724186 14.862806 5 17.177734 5 L 47.822266 5 C 50.137194 5 52 6.8724186 52 9.1992188 L 52 8.1992188 C 52 5.8724186 50.137194 4 47.822266 4 L 17.177734 4 z"/>
 <path style="fill:#ffffff;opacity:0.2" d="M 32.5 23 C 31.733701 23.01133 31.188113 23.489846 30.931641 24.28125 L 29.736328 29 L 25.675781 29 C 25.666881 28.999853 25.659251 28.999853 25.650391 29 C 25.165514 29.01626 24.727956 29.217054 24.419922 29.605469 C 24.024591 30.075471 23.9204 30.703738 24.072266 31.261719 C 24.139739 31.026434 24.254756 30.801831 24.419922 30.605469 C 24.727956 30.217054 25.165514 30.01626 25.650391 30 C 25.659251 29.999853 25.666881 29.999853 25.675781 30 L 29.736328 30 L 30.931641 25.28125 C 31.188113 24.489846 31.733701 24.01133 32.5 24 C 33.266299 24.011345 33.81196 24.48985 34.068359 25.28125 L 35.263672 30 L 39.324219 30 C 39.333079 29.999855 39.340709 29.999855 39.349609 30 C 39.834483 30.016278 40.272043 30.217054 40.580078 30.605469 C 40.745244 30.801831 40.860261 31.026434 40.927734 31.261719 C 41.0796 30.703738 40.97541 30.075471 40.580078 29.605469 C 40.272043 29.217054 39.834483 29.016278 39.349609 29 C 39.340709 28.999855 39.333079 28.999855 39.324219 29 L 35.263672 29 L 34.068359 24.28125 C 33.81196 23.48985 33.266299 23.011345 32.5 23 z M 27.628906 35.419922 L 26.693359 37.771484 C 26.691959 37.776084 26.690653 37.778923 26.689453 37.783203 C 26.590315 38.120505 26.598974 38.462268 26.691406 38.777344 C 26.692056 38.775159 26.692659 38.773784 26.693359 38.771484 L 27.933594 35.650391 L 27.628906 35.419922 z M 37.371094 35.419922 L 37.066406 35.650391 L 38.306641 38.771484 C 38.307241 38.773624 38.307931 38.775159 38.308594 38.777344 C 38.401014 38.462268 38.409685 38.120505 38.310547 37.783203 C 38.309247 37.778603 38.307841 37.775764 38.306641 37.771484 L 37.371094 35.419922 z"/>
 <path style="opacity:0.2" d="M 16 12 L 16 13 L 21 13 L 21 12 L 16 12 z M 44 12 L 44 13 L 49 13 L 49 12 L 44 12 z M 16 23 L 16 24 L 21 24 L 21 23 L 16 23 z M 44 23 L 44 24 L 49 24 L 49 23 L 44 23 z M 16 34 L 16 35 L 21 35 L 21 34 L 16 34 z M 44 34 L 44 35 L 49 35 L 49 34 L 44 34 z M 16 45 L 16 46 L 21 46 L 21 45 L 16 45 z M 44 45 L 44 46 L 49 46 L 49 45 L 44 45 z M 16 56 L 16 57 L 21 57 L 21 56 L 16 56 z M 44 56 L 44 57 L 49 57 L 49 56 L 44 56 z"/>
</svg>
